static/logos/opensea-wordmark-color.svg

<svg width="100" height="23" viewBox="0 0 100 23" fill="none" xmlns="http://www.w3.org/2000/svg">
<g clip-path="url(#clip0_1_1805)">
<path d="M34.3348 16.2862C33.3052 16.2862 32.3587 16.0555 31.4956 15.5941C30.6428 15.1326 29.9614 14.4905 29.4519 13.668C28.9528 12.8353 28.7031 11.9023 28.7031 10.8691C28.7031 9.83581 28.9528 8.90786 29.4519 8.08526C29.9614 7.26267 30.6428 6.62062 31.4956 6.15916C32.3587 5.6977 33.3052 5.46697 34.3348 5.46697C35.3644 5.46697 36.3056 5.6977 37.1585 6.15916C38.0216 6.62062 38.6977 7.26267 39.1865 8.08526C39.6858 8.90786 39.9352 9.83581 39.9352 10.8691C39.9352 11.9023 39.6858 12.8353 39.1865 13.668C38.6872 14.4905 38.0113 15.1326 37.1585 15.5941C36.3056 16.0555 35.3644 16.2862 34.3348 16.2862ZM34.3348 13.9388C35.2084 13.9388 35.9052 13.6579 36.4252 13.0961C36.9557 12.5344 37.2209 11.792 37.2209 10.8691C37.2209 9.93613 36.9557 9.19378 36.4252 8.64203C35.9052 8.08025 35.2084 7.79936 34.3348 7.79936C33.4507 7.79936 32.7437 8.07524 32.2131 8.62697C31.6931 9.17873 31.4332 9.92608 31.4332 10.8691C31.4332 11.802 31.6931 12.5494 32.2131 13.1112C32.7437 13.6629 33.4507 13.9388 34.3348 13.9388Z" fill="#04111D"/>
<path d="M44.0895 8.97305C44.3494 8.58182 44.7082 8.26581 45.1658 8.02506C45.6235 7.78428 46.159 7.66389 46.7727 7.66389C47.4902 7.66389 48.1403 7.83945 48.7228 8.19057C49.3052 8.54168 49.7627 9.04328 50.0957 9.69533C50.4387 10.3474 50.6105 11.1048 50.6105 11.9675C50.6105 12.8303 50.4387 13.5927 50.0957 14.2548C49.7627 14.9069 49.3052 15.4134 48.7228 15.7746C48.1403 16.1257 47.4902 16.3013 46.7727 16.3013C46.1695 16.3013 45.6339 16.1809 45.1658 15.9401C44.7082 15.6994 44.3494 15.3884 44.0895 15.0072V18.6788H41.4219V7.78428H44.0895V8.97305ZM47.8959 11.9675C47.8959 11.3255 47.7087 10.8239 47.3344 10.4628C46.9704 10.0916 46.518 9.90601 45.977 9.90601C45.4467 9.90601 44.9943 10.0916 44.6198 10.4628C44.2558 10.8339 44.0738 11.3405 44.0738 11.9826C44.0738 12.6246 44.2558 13.1312 44.6198 13.5024C44.9943 13.8736 45.4467 14.0592 45.977 14.0592C46.5075 14.0592 46.9599 13.8736 47.3344 13.5024C47.7087 13.1212 47.8959 12.6096 47.8959 11.9675Z" fill="#04111D"/>
<path d="M60.2126 11.8472C60.2126 12.0879 60.1971 12.3387 60.1659 12.5995H54.1285C54.1702 13.1212 54.3417 13.5225 54.6433 13.8033C54.9554 14.0742 55.3349 14.2096 55.7823 14.2096C56.4479 14.2096 56.9105 13.9388 57.1706 13.3971H60.0098C59.8643 13.9488 59.5991 14.4454 59.2142 14.8868C58.8399 15.3282 58.3665 15.6743 57.7946 15.9251C57.2226 16.1759 56.5829 16.3013 55.8759 16.3013C55.023 16.3013 54.2638 16.1257 53.5982 15.7746C52.9326 15.4235 52.4126 14.9219 52.0381 14.2698C51.6638 13.6178 51.4766 12.8554 51.4766 11.9826C51.4766 11.1098 51.6586 10.3474 52.0226 9.69533C52.3968 9.04328 52.9169 8.54168 53.5825 8.19057C54.2481 7.83945 55.0126 7.66389 55.8759 7.66389C56.7182 7.66389 57.467 7.83444 58.1221 8.17553C58.7775 8.5166 59.287 9.00314 59.6511 9.63515C60.0255 10.2672 60.2126 11.0045 60.2126 11.8472ZM57.4827 11.17C57.4827 10.7286 57.3267 10.3775 57.0146 10.1167C56.7025 9.85585 56.3126 9.72544 55.8447 9.72544C55.3973 9.72544 55.0178 9.85084 54.7057 10.1016C54.4041 10.3524 54.2169 10.7085 54.1442 11.17H57.4827Z" fill="#04111D"/>
<path d="M66.9213 7.69405C67.9404 7.69405 68.7516 8.01506 69.3548 8.65711C69.9684 9.28909 70.2753 10.1619 70.2753 11.2754V16.1809H67.6231V11.6215C67.6231 11.0597 67.4723 10.6233 67.1707 10.3123C66.8691 10.0013 66.4637 9.84585 65.9541 9.84585C65.4443 9.84585 65.0388 10.0013 64.7372 10.3123C64.4356 10.6233 64.2848 11.0597 64.2848 11.6215V16.1809H61.6172V7.78433H64.2848V8.89786C64.5552 8.52667 64.9192 8.23576 65.3769 8.0251C65.8343 7.8044 66.3491 7.69405 66.9213 7.69405Z" fill="#04111D"/>
<path d="M76.0948 16.2862C75.2941 16.2862 74.5763 16.1608 73.942 15.91C73.3076 15.6593 72.798 15.2881 72.4133 14.7965C72.0388 14.305 71.841 13.7131 71.8203 13.0209H74.6595C74.7012 13.4121 74.8415 13.7131 75.0809 13.9238C75.3201 14.1244 75.6319 14.2247 76.0169 14.2247C76.4121 14.2247 76.724 14.1394 76.9529 13.9689C77.1816 13.7883 77.2962 13.5426 77.2962 13.2316C77.2962 12.9707 77.2025 12.7551 77.0153 12.5845C76.8385 12.414 76.6148 12.2735 76.3445 12.1632C76.0843 12.0528 75.7101 11.9274 75.2212 11.787C74.5139 11.5763 73.9367 11.3657 73.4896 11.155C73.0424 10.9443 72.6577 10.6333 72.3351 10.222C72.0128 9.81073 71.8515 9.27403 71.8515 8.61194C71.8515 7.62882 72.2208 6.86139 72.9593 6.30964C73.6975 5.74786 74.6595 5.46697 75.8451 5.46697C77.0517 5.46697 78.024 5.74786 78.7624 6.30964C79.5009 6.86139 79.8962 7.63383 79.9481 8.62697H77.062C77.0413 8.2859 76.9112 8.02005 76.672 7.82946C76.4328 7.62882 76.126 7.5285 75.7515 7.5285C75.4292 7.5285 75.1693 7.61378 74.9716 7.78431C74.7741 7.94481 74.6752 8.18057 74.6752 8.49155C74.6752 8.83262 74.8415 9.09848 75.1745 9.28907C75.5073 9.47968 76.0271 9.68533 76.7344 9.90604C77.4417 10.1368 78.0137 10.3575 78.4504 10.5681C78.8978 10.7788 79.2825 11.0848 79.6048 11.486C79.9274 11.8873 80.0884 12.4039 80.0884 13.0359C80.0884 13.6379 79.9274 14.1846 79.6048 14.6761C79.293 15.1677 78.8353 15.5589 78.2322 15.8499C77.629 16.1408 76.9164 16.2862 76.0948 16.2862Z" fill="#04111D"/>
<path d="M89.9393 11.8472C89.9393 12.0879 89.9236 12.3387 89.8924 12.5995H83.8551C83.8967 13.1212 84.0683 13.5225 84.3699 13.8033C84.6819 14.0742 85.0617 14.2096 85.5088 14.2096C86.1744 14.2096 86.6373 13.9388 86.8972 13.3971H89.7364C89.5908 13.9488 89.3257 14.4454 88.9409 14.8868C88.5664 15.3282 88.0933 15.6743 87.5211 15.9251C86.9491 16.1759 86.3095 16.3013 85.6024 16.3013C84.7496 16.3013 83.9904 16.1257 83.3248 15.7746C82.6592 15.4235 82.1391 14.9219 81.7646 14.2698C81.3904 13.6178 81.2031 12.8554 81.2031 11.9826C81.2031 11.1098 81.3851 10.3474 81.7491 9.69533C82.1234 9.04328 82.6434 8.54168 83.309 8.19057C83.9747 7.83945 84.7391 7.66389 85.6024 7.66389C86.4448 7.66389 87.1936 7.83444 87.8489 8.17553C88.504 8.5166 89.0136 9.00314 89.3776 9.63515C89.7521 10.2672 89.9393 11.0045 89.9393 11.8472ZM87.2093 11.17C87.2093 10.7286 87.0532 10.3775 86.7412 10.1167C86.4291 9.85585 86.0391 9.72544 85.5712 9.72544C85.1241 9.72544 84.7444 9.85084 84.4323 10.1016C84.1307 10.3524 83.9434 10.7085 83.8708 11.17H87.2093Z" fill="#04111D"/>
<path d="M90.8125 11.9675C90.8125 11.1048 90.979 10.3474 91.3118 9.69533C91.6549 9.04328 92.1177 8.54168 92.7002 8.19057C93.2827 7.83945 93.9326 7.66389 94.6503 7.66389C95.2638 7.66389 95.7995 7.78428 96.2571 8.02506C96.725 8.26581 97.0838 8.58182 97.3335 8.97305V7.78428H100.001V16.1809H97.3335V14.9921C97.0736 15.3833 96.7095 15.6994 96.2414 15.9401C95.7838 16.1809 95.2483 16.3013 94.6346 16.3013C93.9273 16.3013 93.2827 16.1257 92.7002 15.7746C92.1177 15.4134 91.6549 14.9069 91.3118 14.2548C90.979 13.5927 90.8125 12.8303 90.8125 11.9675ZM97.3335 11.9826C97.3335 11.3405 97.1462 10.8339 96.772 10.4628C96.4079 10.0916 95.9606 9.90601 95.4303 9.90601C94.8997 9.90601 94.4474 10.0916 94.0731 10.4628C93.7091 10.8239 93.5271 11.3255 93.5271 11.9675C93.5271 12.6096 93.7091 13.1212 94.0731 13.5024C94.4474 13.8736 94.8997 14.0592 95.4303 14.0592C95.9606 14.0592 96.4079 13.8736 96.772 13.5024C97.1462 13.1312 97.3335 12.6246 97.3335 11.9826Z" fill="#04111D"/>
<path d="M22.779 11.3895C22.779 17.6794 17.6794 22.779 11.3895 22.779C5.09961 22.779 0 17.6794 0 11.3895C0 5.09961 5.09961 0 11.3895 0C17.6808 0 22.779 5.09961 22.779 11.3895Z" fill="#2081E2"/>
<path d="M5.61784 11.7722L5.66697 11.695L8.62984 7.05993C8.67314 6.99207 8.77494 6.99909 8.8077 7.0728C9.30269 8.18212 9.7298 9.56175 9.5297 10.4207C9.44428 10.7741 9.21025 11.2526 8.94695 11.695C8.91303 11.7593 8.87558 11.8225 8.83579 11.8834C8.81706 11.9115 8.78547 11.9278 8.75153 11.9278H5.70442C5.62251 11.9278 5.57453 11.8389 5.61784 11.7722Z" fill="white"/>
<path d="M18.8233 12.6335V13.3672C18.8233 13.4093 18.7975 13.4467 18.7601 13.4631C18.5307 13.5614 17.7455 13.9218 17.4191 14.3759C16.5859 15.5355 15.9493 17.1936 14.5264 17.1936H8.59013C6.48619 17.1936 4.78125 15.4828 4.78125 13.3718V13.304C4.78125 13.2478 4.82688 13.2022 4.88305 13.2022H8.1923C8.25781 13.2022 8.30578 13.263 8.29995 13.3274C8.27654 13.5427 8.31633 13.7627 8.41813 13.9628C8.61471 14.3618 9.02193 14.6111 9.46191 14.6111H11.1002V13.3321H9.48063C9.39756 13.3321 9.34843 13.2361 9.3964 13.1682C9.41394 13.1413 9.43385 13.1133 9.45489 13.0817C9.6082 12.864 9.82701 12.5258 10.0447 12.1408C10.1933 11.8811 10.3372 11.6037 10.453 11.3252C10.4765 11.2749 10.4952 11.2234 10.5139 11.1731C10.5455 11.0842 10.5783 11.0011 10.6017 10.918C10.6251 10.8478 10.6438 10.7741 10.6625 10.705C10.7175 10.4687 10.7409 10.2182 10.7409 9.95847C10.7409 9.85667 10.7362 9.75018 10.7269 9.64838C10.7222 9.53722 10.7082 9.42604 10.6941 9.31487C10.6847 9.21658 10.6672 9.11945 10.6485 9.01765C10.6251 8.86904 10.5923 8.72162 10.5548 8.57298L10.542 8.51683C10.5139 8.41501 10.4905 8.3179 10.4577 8.2161C10.3653 7.89663 10.2588 7.58538 10.1465 7.29401C10.1055 7.17815 10.0587 7.06699 10.0119 6.95583C9.94287 6.7885 9.87264 6.63638 9.80829 6.49244C9.77553 6.4269 9.74745 6.36722 9.71936 6.30638C9.68776 6.23734 9.65501 6.16829 9.62223 6.10278C9.59884 6.05246 9.57191 6.00565 9.55319 5.95884L9.3531 5.58907C9.32501 5.53875 9.37182 5.47907 9.42681 5.49428L10.6789 5.83362H10.6824C10.6847 5.83362 10.6859 5.83481 10.6871 5.83481L10.8521 5.88043L11.0335 5.93194L11.1002 5.95064V5.20642C11.1002 4.84718 11.388 4.55581 11.7438 4.55581C11.9216 4.55581 12.0831 4.62836 12.1989 4.74654C12.3148 4.86474 12.3873 5.02622 12.3873 5.20642V6.31107L12.5207 6.3485C12.5313 6.35203 12.5418 6.3567 12.5512 6.36371C12.5839 6.38829 12.6307 6.42456 12.6904 6.46904C12.7372 6.50647 12.7875 6.55212 12.8484 6.59893C12.9689 6.69604 13.1128 6.82125 13.2708 6.96519C13.3129 7.00146 13.3539 7.03891 13.3913 7.07636C13.595 7.26592 13.8231 7.48825 14.0408 7.73399C14.1016 7.80303 14.1613 7.87324 14.2222 7.94695C14.283 8.02185 14.3474 8.09556 14.4035 8.16929C14.4773 8.26759 14.5568 8.36939 14.6259 8.47588C14.6586 8.5262 14.6961 8.57768 14.7277 8.628C14.8166 8.76255 14.895 8.90182 14.9699 9.04107C15.0015 9.10542 15.0343 9.17563 15.0623 9.24467C15.1454 9.43073 15.211 9.6203 15.2531 9.80986C15.2659 9.85082 15.2753 9.89529 15.28 9.93508V9.94444C15.294 10.0006 15.2987 10.0603 15.3034 10.1211C15.3221 10.3154 15.3128 10.5096 15.2706 10.705C15.2531 10.7881 15.2297 10.8665 15.2016 10.9496C15.1735 11.0292 15.1454 11.1123 15.1092 11.1907C15.0389 11.3533 14.9559 11.516 14.8576 11.6681C14.826 11.7243 14.7885 11.7839 14.7511 11.8401C14.7101 11.8998 14.668 11.9559 14.6305 12.011C14.5791 12.0812 14.5241 12.1549 14.4679 12.2204C14.4176 12.2895 14.3661 12.3585 14.3099 12.4193C14.2315 12.5118 14.1566 12.5995 14.0782 12.6838C14.0314 12.7388 13.9811 12.795 13.9296 12.8453C13.8793 12.9014 13.8278 12.9518 13.781 12.9986C13.7026 13.077 13.6371 13.1378 13.5821 13.1881L13.4534 13.3063C13.4346 13.3227 13.4101 13.3321 13.3843 13.3321H12.3873V14.6111H13.6418C13.9226 14.6111 14.1894 14.5116 14.4047 14.329C14.4784 14.2647 14.8002 13.9862 15.1805 13.5661C15.1934 13.5521 15.2098 13.5415 15.2285 13.5369L18.6934 12.5352C18.7577 12.5165 18.8233 12.5656 18.8233 12.6335Z" fill="white"/>
</g>
<defs>
<clipPath id="clip0_1_1805">
<rect width="100" height="22.779" fill="white"/>
</clipPath>
</defs>
</svg>

<svg xmlns="http://www.w3.org/2000/svg" width="278.261" height="64" fill="none" viewBox="0 0 100 23"><g clip-path="url(#a)"><path fill="#04111D" d="M34.335 16.286c-1.03 0-1.976-.23-2.84-.692a5.37 5.37 0 0 1-2.043-1.926c-.5-.833-.749-1.766-.749-2.799s.25-1.961.749-2.784a5.37 5.37 0 0 1 2.044-1.926 5.927 5.927 0 0 1 2.839-.692c1.03 0 1.97.23 2.823.692a5.115 5.115 0 0 1 2.029 1.926c.499.823.748 1.75.748 2.784 0 1.033-.25 1.966-.748 2.799a5.256 5.256 0 0 1-2.029 1.926c-.852.461-1.794.692-2.823.692Zm0-2.347c.873 0 1.57-.281 2.09-.843.53-.562.796-1.304.796-2.227 0-.933-.265-1.675-.796-2.227-.52-.562-1.217-.843-2.09-.843-.884 0-1.591.276-2.122.828-.52.552-.78 1.3-.78 2.242 0 .933.26 1.68.78 2.242.53.552 1.238.828 2.122.828ZM44.09 8.973c.26-.391.618-.707 1.076-.948.458-.24.993-.361 1.607-.361.717 0 1.367.175 1.95.527.582.35 1.04.852 1.373 1.504.343.652.515 1.41.515 2.272 0 .863-.172 1.626-.515 2.288a3.749 3.749 0 0 1-1.373 1.52 3.705 3.705 0 0 1-1.95.526c-.604 0-1.14-.12-1.607-.36a2.911 2.911 0 0 1-1.076-.934v3.672h-2.668V7.784h2.668v1.19Zm3.806 2.994c0-.642-.187-1.143-.562-1.504-.364-.371-.816-.557-1.357-.557-.53 0-.983.186-1.357.557-.364.37-.546.878-.546 1.52s.182 1.148.546 1.52c.374.37.827.556 1.357.556s.983-.185 1.357-.557c.375-.38.562-.892.562-1.535ZM60.213 11.847c0 .24-.016.492-.047.753h-6.037c.041.521.213.923.514 1.203.312.271.692.407 1.14.407.665 0 1.127-.271 1.388-.813h2.839a3.662 3.662 0 0 1-.796 1.49 3.861 3.861 0 0 1-1.42 1.038c-.571.25-1.211.376-1.918.376-.853 0-1.612-.175-2.278-.526a3.819 3.819 0 0 1-1.56-1.505c-.374-.652-.561-1.415-.561-2.287 0-.873.182-1.636.546-2.288a3.817 3.817 0 0 1 1.56-1.504c.665-.352 1.43-.527 2.293-.527.842 0 1.591.17 2.246.512a3.696 3.696 0 0 1 1.53 1.46c.373.631.56 1.369.56 2.211Zm-2.73-.677c0-.441-.156-.793-.468-1.053-.313-.261-.702-.392-1.17-.392-.448 0-.827.126-1.14.377-.3.25-.488.607-.56 1.068h3.338ZM66.921 7.694c1.02 0 1.83.321 2.434.963.613.632.92 1.505.92 2.618v4.906h-2.652v-4.56c0-.561-.15-.998-.452-1.309-.302-.31-.707-.466-1.217-.466-.51 0-.915.155-1.217.466-.301.311-.452.748-.452 1.31v4.559h-2.668V7.784h2.668v1.114c.27-.371.634-.662 1.092-.873.457-.22.972-.331 1.544-.331ZM76.095 16.286c-.8 0-1.519-.125-2.153-.376-.634-.25-1.144-.622-1.529-1.114-.374-.491-.572-1.083-.593-1.775h2.84c.041.391.181.692.42.903.24.2.552.3.937.3.395 0 .707-.085.936-.255a.89.89 0 0 0 .343-.737.838.838 0 0 0-.28-.647c-.178-.171-.401-.312-.672-.422-.26-.11-.634-.236-1.123-.376-.707-.21-1.284-.421-1.731-.632a3.177 3.177 0 0 1-1.155-.933c-.322-.411-.483-.948-.483-1.61 0-.983.369-1.75 1.107-2.302.739-.562 1.7-.843 2.886-.843 1.207 0 2.179.28 2.917.843.739.551 1.134 1.324 1.186 2.317h-2.886c-.02-.341-.15-.607-.39-.798-.24-.2-.546-.3-.92-.3-.323 0-.583.085-.78.255-.198.16-.297.397-.297.708 0 .34.166.606.5.797.332.19.852.396 1.56.617.707.23 1.279.451 1.715.662.448.21.832.517 1.155.918.322.401.483.918.483 1.55 0 .602-.16 1.149-.483 1.64-.312.492-.77.883-1.373 1.174-.603.29-1.316.436-2.137.436ZM89.94 11.847c0 .24-.016.492-.048.753h-6.037c.042.521.213.923.515 1.203.312.271.692.407 1.139.407.665 0 1.128-.271 1.388-.813h2.84a3.664 3.664 0 0 1-.796 1.49 3.861 3.861 0 0 1-1.42 1.038c-.572.25-1.212.376-1.919.376-.852 0-1.612-.175-2.277-.526a3.819 3.819 0 0 1-1.56-1.505c-.375-.652-.562-1.415-.562-2.287 0-.873.182-1.636.546-2.288a3.817 3.817 0 0 1 1.56-1.504c.666-.352 1.43-.527 2.293-.527.843 0 1.592.17 2.247.512a3.696 3.696 0 0 1 1.529 1.46c.374.631.561 1.369.561 2.211Zm-2.73-.677c0-.441-.157-.793-.469-1.053-.312-.261-.702-.392-1.17-.392-.447 0-.827.126-1.139.377-.301.25-.489.607-.561 1.068h3.338ZM90.813 11.967c0-.862.166-1.62.499-2.272.343-.652.806-1.153 1.388-1.504a3.704 3.704 0 0 1 1.95-.527c.614 0 1.15.12 1.607.361.468.24.827.557 1.076.948V7.784h2.668v8.397h-2.668v-1.189c-.26.391-.623.707-1.092.948-.457.24-.993.361-1.606.361a3.675 3.675 0 0 1-1.935-.526 3.856 3.856 0 0 1-1.388-1.52c-.333-.662-.5-1.425-.5-2.288Zm6.52.016c0-.643-.187-1.15-.561-1.52a1.806 1.806 0 0 0-1.342-.557c-.53 0-.983.186-1.357.557-.364.36-.546.863-.546 1.505 0 .642.182 1.153.546 1.534.374.372.827.557 1.357.557s.978-.185 1.342-.557c.374-.37.561-.877.561-1.52Z"/><path fill="#2081E2" d="M22.779 11.39c0 6.29-5.1 11.389-11.39 11.389C5.1 22.779 0 17.679 0 11.389 0 5.1 5.1 0 11.39 0c6.29 0 11.389 5.1 11.389 11.39Z"/><path fill="#fff" d="m5.618 11.772.049-.077L8.63 7.06a.101.101 0 0 1 .178.013c.495 1.11.922 2.489.722 3.348-.086.353-.32.832-.583 1.274a2.353 2.353 0 0 1-.111.188.1.1 0 0 1-.084.045H5.704a.101.101 0 0 1-.086-.156Z"/><path fill="#fff" d="M18.823 12.633v.734c0 .042-.026.08-.063.096-.23.098-1.015.459-1.34.913-.834 1.16-1.47 2.818-2.894 2.818H8.59a3.815 3.815 0 0 1-3.809-3.822v-.068c0-.056.046-.102.102-.102h3.31c.065 0 .113.061.107.125a1.13 1.13 0 0 0 .118.636c.197.399.604.648 1.044.648H11.1v-1.279H9.48a.104.104 0 0 1-.084-.164l.059-.086c.153-.218.372-.556.59-.941.148-.26.292-.537.408-.816.024-.05.042-.102.06-.152.033-.089.065-.172.089-.255.023-.07.042-.144.06-.213.055-.236.079-.487.079-.747 0-.101-.005-.208-.014-.31a4.004 4.004 0 0 0-.033-.333 3.481 3.481 0 0 0-.046-.297 4.994 4.994 0 0 0-.093-.445l-.013-.056c-.028-.102-.051-.2-.084-.3-.093-.32-.2-.632-.312-.923-.04-.116-.087-.227-.134-.338-.07-.168-.14-.32-.204-.464a6.48 6.48 0 0 1-.089-.186 6.562 6.562 0 0 0-.097-.203c-.023-.05-.05-.097-.069-.144l-.2-.37a.065.065 0 0 1 .074-.095l1.252.34h.008l.165.046.181.052.067.019v-.745c0-.359.288-.65.644-.65.178 0 .34.072.455.19.116.119.188.28.188.46v1.105l.134.037c.01.004.02.009.03.016l.14.105c.046.037.096.083.157.13a9.576 9.576 0 0 1 .543.477c.204.19.432.412.65.658.06.069.12.14.181.213.061.075.125.149.181.222.074.099.154.2.223.307.033.05.07.102.102.152.089.135.167.274.242.413.031.064.064.135.092.204.083.186.149.375.191.565a.714.714 0 0 1 .027.125v.01c.014.056.019.115.023.176a1.888 1.888 0 0 1-.101.829 3.278 3.278 0 0 1-.344.719c-.032.055-.07.115-.107.171-.04.06-.083.116-.12.171-.052.07-.107.144-.163.21a7.628 7.628 0 0 1-.39.463 2.419 2.419 0 0 1-.148.161c-.05.056-.102.107-.149.154-.078.078-.144.139-.199.19l-.129.117a.105.105 0 0 1-.069.026h-.997v1.28h1.255c.28 0 .547-.1.763-.283.073-.064.395-.343.776-.763a.097.097 0 0 1 .048-.03l3.464-1c.065-.02.13.03.13.098Z"/></g><defs><clipPath id="a"><path fill="#fff" d="M0 0h100v22.779H0z"/></clipPath></defs></svg>
